resources/svg/projects/Colorfx.svg

<svg xmlns="http://www.w3.org/2000/svg" viewBox="0 0 512 512" style="fill: #56dcfc;"><!--! Font Awesome Pro 6.1.1 by @fontawesome - https://fontawesome.com License - https://fontawesome.com/license (Commercial License) Copyright 2022 Fonticons, Inc. --><path d="M482.8 29.23C521.7 68.21 521.7 131.4 482.8 170.4L381.2 271.9L390.6 281.4C403.1 293.9 403.1 314.1 390.6 326.6C378.1 339.1 357.9 339.1 345.4 326.6L185.4 166.6C172.9 154.1 172.9 133.9 185.4 121.4C197.9 108.9 218.1 108.9 230.6 121.4L240.1 130.8L341.6 29.23C380.6-9.744 443.8-9.744 482.8 29.23L482.8 29.23zM55.43 323.3L176.1 202.6L221.4 247.9L100.7 368.6C97.69 371.6 96 375.6 96 379.9V416H132.1C136.4 416 140.4 414.3 143.4 411.3L264.1 290.6L309.4 335.9L188.7 456.6C173.7 471.6 153.3 480 132.1 480H89.69L49.75 506.6C37.06 515.1 20.16 513.4 9.373 502.6C-1.413 491.8-3.086 474.9 5.375 462.2L32 422.3V379.9C32 358.7 40.43 338.3 55.43 323.3L55.43 323.3z"/></svg>

<?xml version="1.0" encoding="utf-8"?>
<!-- Generator: Adobe Illustrator 25.4.0, SVG Export Plug-In . SVG Version: 6.00 Build 0)  -->
<svg version="1.1" id="Calque_1" xmlns="http://www.w3.org/2000/svg" xmlns:xlink="http://www.w3.org/1999/xlink" x="0px" y="0px"
	 viewBox="0 0 512 512" style="enable-background:new 0 0 512 512;" xml:space="preserve">
<style type="text/css">
	.st0{fill:#56DCFC;}
</style>
<path class="st0" d="M482.8,29.2c38.9,39,38.9,102.2,0,141.2L381.2,271.9l9.4,9.5c12.5,12.5,12.5,32.7,0,45.2s-32.7,12.5-45.2,0
	l-160-160c-12.5-12.5-12.5-32.7,0-45.2s32.7-12.5,45.2,0l9.5,9.4L341.6,29.2C380.6-9.7,443.8-9.7,482.8,29.2L482.8,29.2z
	 M55.4,323.3l120.7-120.7l45.3,45.3L100.7,368.6c-3,3-4.7,7-4.7,11.3V416h36.1c4.3,0,8.3-1.7,11.3-4.7l120.7-120.7l45.3,45.3
	L188.7,456.6c-15,15-35.4,23.4-56.6,23.4H89.7l-39.9,26.6c-12.7,8.5-29.6,6.8-40.4-4c-10.8-10.8-12.5-27.7-4-40.4L32,422.3v-42.4
	C32,358.7,40.4,338.3,55.4,323.3L55.4,323.3z"/>
</svg>
